local/share/icons/dracula-icons-main/scalable/apps/com.github.cryptowyrm.copypastegrab.svg

<?xml version="1.0" encoding="UTF-8"?>
<svg xmlns="http://www.w3.org/2000/svg" xmlns:xlink="http://www.w3.org/1999/xlink" width="64" height="64" viewBox="0 0 64 64">
<path fill-rule="nonzero" fill="rgb(95.686275%, 23.921569%, 32.54902%)" fill-opacity="1" d="M 32 5 C 46.910156 5 59 17.089844 59 32 C 59 46.910156 46.910156 59 32 59 C 17.089844 59 5 46.910156 5 32 C 5 17.089844 17.089844 5 32 5 Z M 32 5 "/>
<path fill-rule="nonzero" fill="rgb(100%, 100%, 100%)" fill-opacity="1" d="M 26.039062 24 C 25.992188 24.03125 25.984375 39.9375 26.027344 39.984375 C 26.046875 40.003906 26.09375 40.003906 26.136719 39.984375 C 26.179688 39.96875 28.921875 38.414062 32.230469 36.527344 L 32.230469 36.53125 C 40.167969 32.015625 40 32.113281 40 32.023438 C 40 31.9375 26.105469 23.953125 26.039062 24 Z M 26.039062 24 "/>
<path fill-rule="nonzero" fill="rgb(100%, 100%, 100%)" fill-opacity="1" d="M 12 13.824219 C 11.097656 14.820312 10.273438 15.878906 9.527344 17 L 12 17 Z M 52 13.824219 L 52 17 L 54.472656 17 C 53.726562 15.878906 52.902344 14.820312 52 13.824219 Z M 9 19 L 9 24 L 12 24 L 12 19 Z M 52 19 L 52 24 L 55 24 L 55 19 Z M 9 26 L 9 31 L 12 31 L 12 26 Z M 52 26 L 52 31 L 55 31 L 55 26 Z M 9 33 L 9 38 L 12 38 L 12 33 Z M 52 33 L 52 38 L 55 38 L 55 33 Z M 9 40 L 9 45 L 12 45 L 12 40 Z M 52 40 L 52 45 L 55 45 L 55 40 Z M 9.523438 47 C 10.273438 48.121094 11.097656 49.179688 12 50.171875 L 12 47 Z M 52 47 L 52 50.171875 C 52.902344 49.179688 53.726562 48.121094 54.472656 47 Z M 52 47 "/>
</svg>

<svg width="64" height="64" version="1.1" viewBox="0 0 64 64" xmlns="http://www.w3.org/2000/svg">
 <rect x="5" y="5" width="54" height="54" rx="27" ry="27" fill="#f43d53" stroke-width="3.6445"/>
 <path d="m26.039 24c-0.04576 0.03106-0.05483 15.936-0.0098 15.986 0.017 0.0184 0.06562 0.0177 0.10742 0 0.04182-0.0178 2.7848-1.5733 6.0957-3.457v2e-3c7.9372-4.5159 7.7676-4.4172 7.7676-4.5078 0-0.08484-13.893-8.0694-13.961-8.0234z" fill="#ffffff" stroke-width="1.5811"/>
 <path d="m12 13.826c-0.90205 0.99267-1.7275 2.0537-2.4746 3.1738h2.4746v-3.1738zm40 0v3.1738h2.4746c-0.74713-1.1201-1.5726-2.1812-2.4746-3.1738zm-43 5.1738v5h3v-5h-3zm43 0v5h3v-5h-3zm-43 7v5h3v-5h-3zm43 0v5h3v-5h-3zm-43 7v5h3v-5h-3zm43 0v5h3v-5h-3zm-43 7v5h3v-5h-3zm43 0v5h3v-5h-3zm-42.475 7c0.74713 1.1201 1.5726 2.1812 2.4746 3.1738v-3.1738h-2.4746zm42.475 0v3.1738c0.90205-0.99267 1.7275-2.0537 2.4746-3.1738h-2.4746z" fill="#ffffff"/>
</svg>
